X: 58
T: Duke of Fyfe's Welcome to Deeside
C: J.S.Skinner
Z: Mary Lou Knack <mlknack@bbn.COM>
R: reel
M: C|
L: 1/8
K: A
E2 \
| "A"[A,2E2]A2 A2(Bc) | "E"B2A2 "A"A2(Bc) | "D"d2(ef) "A"e2a2 | ecAc "E"B2E2 \
| "A"[A,2E2]A2 A2(Bc) | "E"B2A2 "A"A2(Bc) | "D"d2(ef) "E"ecBc | "A"A4 A2 :|
|: cd \
| "A"e2cA a2ga | "D"f2a2 "A"e2c2 | "D"d2(ef) "A"e2a2 | ecAc "E"B2(cd) \
| "A"e2cA a2ga | "D"f2a2 "A"e2c2 | "D"d2(ef) "E"ecBc | "A"A4 A2cd |
| "A"e2cA a2ga | "D"f2a2 "A"e2c2 | "D"d2(ef) "A"e2a2 | ecAc "E"B2E2 \
| "A"[A,2E2]A2 A2(Bc) | "E"B2A2 "A"A2(Bc) | "D"d2(ef) "E"ecBc | "A"A4 A2 :|

%%sep 1 1 500

